**kern	**silbe
*ICvox	*
*C:	*
*M4/4	*
*clefGv2	*
r;	.
=1	=1
1r	.
=2	=2
1r	.
=3	=3
1r	.
=4	=4
2.r	.
8.r	.
16F	of
=5	=5
8.E	course
16G	we
16c	have
16B	our
16d	differ-
16c	-enc-
4.c	-es
16r	.
16G	you
=6	=6
16G	should-
16F	-n't
4F	be
16E	sur-
16[F	-prised
8F]	_
8r	.
8r	.
16F	it's
16E	as
=7	=7
8D	nat-
16F	-u-
8.G	_
16G	as
8e	chang-
4d	-es
16d	in
16e	the
16[d	sea
=8	=8
8d]	_
8c	sons
16c	and
16B	the
16c	skies
16d	_
4.c	_
16r	.
16G	some-
=9	=9
4E	-times
16G	we
16c	grow
16B	to-
16d	-ge-
4c	-ther
8.r	.
16G	some-
=10	=10
4G	-times
16F	we
16F	drift
16E	a-
8.F	-part
8r	.
8.r	.
16E	A
=11	=11
8D	wis-
16F	-er
8.G	man
16G	than
8e	I
8d	night
4d	know
16e	the
=12	=12
8d	sea-
8c	-sons
16c	of
16B	the
4.c	heart
8r	.
16r	.
32E	and
32D	I'm
=13	=13
16C	walk-
8.E	-ing
8G	here
16c	be-
8d	-side
4[e	you
16e]	_
16r	.
32c	in
32c	the
=14	=14
16c	ear-
8.A	-ly
16A	eve-
8A	-ning
16[A	chill
4A]	_
8.r	.
16F	a
=15	=15
8D	thing
16F	we've
8G	al-
8G	-ways
8e	loved
16d	to
8.d	do
16r	.
16d	I
16e	_
=16	=16
8.d	know
16c	we
16c	al-
8B	-ways
16[c	will
4c]	_
8.r	.
16G	WE
=17	=17
8E	have
8G	so
16c	much
16B	in
16d	com-
8c	-mon
8.r	.
8.r	.
16G	so
=18	=18
16G	man-
16F	-y
4F	things
16E	we
16[F	share
8.F]	_
16r	.
8r	.
16F	that
16E	I
=19	=19
8D	can't
16F	be-
8.G	-lieve
16G	my
16e	heart
4r	.
16d	when
16d	it
16e	im-
16[d	-plies
=20	=20
*M4/4	*
8.d]	_
16c	that
16c	you're
8B	not
16[c	there
2c_	_
=21	=21
*M2/4	*
4.c]	_
8r	.
=22	=22
*M4/4	*
16A	love
16B	is
4c	why
8c	I
8B	came
4B	here
16B	in
16A	the
=23	=23
8G	first
4.D	place
2r	.
=24	=24
16A	Love
16B	is
8[c	now
8.c]	_
16c	the
8B	rea-
16B	-son
8.B	I
8A	must
=25	=25
2G	go
2r	.
=26	=26
16A	Love
16B	is
4c	all
8c	I
16B	ev-
16c	-er
4d	hoped
16c	to
16[c	find
=27	=27
16c]	_
4..[e	here
2e]	_
=28	=28
8.f	Love
16e	is
8c	still
16r	.
16A	the
8G	on-
16G	-ly
8c	dream
8.B	I
=29	=29
1[c	know
=30	=30
2.c]	_
4r	.
=31	=31
1r	.
=32	=32
2r	.
4.r	.
32D	So
32D	I
16[E	don't
=33	=33
16E]	_
8.G	know
8c	how
16B	to
16[d	tell
16d]	_
8c	you
4r	.
16G	It's
=34	=34
16G	dif-
16F	-fi-
4F	-cult
16E	to
16[F	say
4F]	_
8r	.
16r	.
16E	I
=35	=35
16D	ne-
8.F	-ver
16G	in
8G	my
8e	wild-
16d	-est
4[d	dreams
16d]	_
16e	i-
=36	=36
16d	-mag-
8.c	-ined
16c	it
16B	this
8[c	way
8c]	_
4r	.
16G	some-
16[E	-times
=37	=37
8E]	_
8r	.
32r	.
32G	I
16c	just
16B	don't
8d	know
8.c	you
8r	.
16G	there's
16G	a
=38	=38
8G	strang-
8F	-er
16F	in
8F	our
16[F	home
4F]	_
8r	.
16F	when
16E	I'm
=39	=39
16D	ly-
8.F	-ing
8G	right
16G	be-
8e	-side
8.[d	you
8d]	_
8e	is
=40	=40
16d	when
8.c	I'm
8c	most
16B	a-
16[c	-lone
4c]	_
8r	.
16E	and
16D	I
=41	=41
8.C	think
16E	my
16G	heart
8c	is
8d	bro-
4[e	-ken
16e]	_
16c	there's
16c	a
=42	=42
16c	emp-
16A	-ti-
4A	-ness
16A	in-
16[A	-side
8A]	_
8r	.
8.r	.
16F	So
=43	=43
16D	ma-
16F	-ny
8[G	things
16G]	_
8G	I've
8e	longed
4d	for
16.d	have
16.e	so
=44	=44
16d	of-
8.c	-ten
16c	been
16B	de-
8[c	-nied
8c]	_
8r	.
8r	.
16G	still
16[F	I
=45	=45
16F]	_
16r	.
24C	I
24E	would'-
24G	-nt
8c	try
16B	to
8d	change
8.c	you
8.r	.
16E	there's
=46	=46
16G	no
8.F	one
8F	that's
16E	to
16[F	blame
4F]	_
8.r	.
16E	it's
=47	=47
16D	just
8F	some
8.G	things
16G	that
8e	mean
8d	so
16d	much
8r	.
16d	and
16e	we
=48	=48
16d	just
8.c	don't
8c	feel
16B	the
32c	same
32d	_
2[c	_
=49	=49
*M2/4	*
4.c]	_
8r	.
=50	=50
*M4/4	*
16A	love
16B	is
4c	why
8c	I
8B	came
4B	here
16B	in
16A	the
=51	=51
8G	first
8D	place
4r	.
2r	.
=52	=52
16A	Love
16B	is
8[c	now
8.c]	_
16c	the
8B	rea-
16B	-son
8.B	I
16A	must
16G	_
=53	=53
2.G	go
4r	.
=54	=54
16A	Love
16B	is
4c	all
8c	I
16B	ev-
16c	-er
4d	hoped
16c	to
16[c	find
=55	=55
16c]	_
4..[e	here
4.e]	_
8r	.
=56	=56
8f	Love
16e	is
8c	still
8r	.
16A	the
8G	on-
16G	-ly
8c	dream
8.B	I
=57	=57
2[c	know
8c]	_
8r	.
16d	True
8.e	_
=58	=58
4.f	love
8e	is
8c	still
4r	.
8G	the
=59	=59
8G	on-
4G	-ly
4c	dream
4d	I
8c	_
=60	=60
1[c	know
=61	=61
1c_	_
=62	=62
2.c]	_
4r	.
=63	=63
1r	.
r;	.
r;	.
*-	*-
!!!ENC: Nathaniel Condit-Schultz